rospo-icon-theme-classic-common/16x16/apps/com.github.bartzaalberg.bookmark-manager.svg

<svg height="16" width="16" xmlns="http://www.w3.org/2000/svg"><rect fill="#1396ed" height="16" rx=".857" transform="matrix(0 -1 -1 0 0 0)" width="16" x="-16" y="-16"/><path d="m8 2-1.5892 4.3335-4.4108.2497 3.429 2.9288-1.137 4.488 3.708-2.524 3.708 2.524-1.137-4.488 3.429-2.9288-4.4108-.2497z" fill="#fff"/></svg>

<svg xmlns="http://www.w3.org/2000/svg" width="16" height="16" version="1">
 <rect style="fill:#1396ed" width="16" height="16" x="-16" y="-16" rx=".857" ry=".857" transform="matrix(0,-1,-1,0,0,0)"/>
 <path style="fill:#ffffff" d="M 8,2 6.4108,6.3335 2,6.5832 5.429,9.512 4.292,14 8,11.476 11.708,14 10.571,9.512 14,6.5832 9.5892,6.3335 Z"/>
</svg>
